resources/dark/button-rclick-small.svg

<?xml version="1.0" encoding="UTF-8" standalone="no"?>
<svg
   xmlns:dc="http://purl.org/dc/elements/1.1/"
   xmlns:cc="http://creativecommons.org/ns#"
   xmlns:rdf="http://www.w3.org/1999/02/22-rdf-syntax-ns#"
   xmlns:svg="http://www.w3.org/2000/svg"
   xmlns="http://www.w3.org/2000/svg"
   id="svg8"
   version="1.1"
   width="16"
   height="16"
   fill="none">
  <metadata
     id="metadata14">
    <rdf:RDF>
      <cc:Work
         rdf:about="">
        <dc:format>image/svg+xml</dc:format>
        <dc:type
           rdf:resource="http://purl.org/dc/dcmitype/StillImage" />
        <dc:title></dc:title>
      </cc:Work>
    </rdf:RDF>
  </metadata>
  <defs
     id="defs12" />
  <path
     style="fill:#c5c5c5;fill-opacity:0.25"
     id="path2"
     d="m 2.202,6.678 c -0.388,0.34 -0.42,0.704 -0.42,1.3 0.235,1.64 3.04,2.669 5.85,2.679 2.795,0.01 5.64,-0.986 5.958,-2.582 0.09788,-0.5782411 -0.233357,-0.9451916 -0.388,-1.277 -0.3,-0.2 -0.527,-0.24 -0.718,0.025 0,1.242 -2.145,2.248 -4.79,2.249 C 5.047,9.072 2.901,8.065 2.9,6.823 2.901,6.767 2.798,6.622 2.7,6.541 2.542,6.451 2.314,6.571 2.202,6.678 Z" />
  <path
     id="path4"
     d="m 7.6972656,1.21875 c -1.3685,0 -2.6107343,0.2580313 -3.5527344,0.7070312 -0.8419999,0.4000001 -1.5037187,0.9898594 -1.6367187,1.7558594 -0.043,0.148 -0.017297,0.2688281 -0.029297,0.4238282 v 1.5 c -0.903,0.5359999 -1.56424996,1.2384687 -1.65624998,2.1054687 -0.027,0.13 -0.008719,0.2710625 -0.0117187,0.4140625 l 0.002977,2.395922 c 0.002977,0.0385 0.0143203,0.114062 0.0263204,0.188062 0.155,0.972 1,1.74625 2.1250001,2.28125 1.2459999,0.593 2.9024217,0.939452 4.7324217,0.939454 1.1074799,0 2.1383263,-0.141419 3.0683594,-0.373047 l -0.457031,-0.914063 c -0.7899623,0.177139 -1.6707543,0.287109 -2.6113284,0.28711 -1.703,0 -3.2366875,-0.333797 -4.3046874,-0.841797 -0.891,-0.424 -1.3980156,-0.935016 -1.5410156,-1.416016 -0.012,-0.064 -0.029969,-0.126453 -0.042969,-0.189453 V 8.265625 c -0.016,-0.3 -0.017844,-0.5525625 0.1601562,-0.8515625 0.11,-0.215 0.2827188,-0.4134689 0.5117188,-0.6054687 -0.002,0.09 0.018344,0.1835312 0.027344,0.2695312 0.128,0.77 0.7916719,1.3665313 1.6386718,1.7695312 0.943,0.4480001 2.1827812,0.7050782 3.5507812,0.7050782 1.3680001,0 2.6126404,-0.2570781 3.5566404,-0.7050782 0.853,-0.4059999 1.522578,-1.0071093 1.642578,-1.7871093 0.02,-0.095 0.01449,-0.1619532 0.02149,-0.2519531 0.355,0.299 0.574672,0.6105156 0.638672,0.9785156 0.02447,0.1838125 0.01916,0.2772343 0.03516,0.4902344 v 1.25 H 14.59375 V 8.0820312 c -0.0083,-0.1546249 -0.01644,-0.2559531 -0.02344,-0.3769531 -0.082,-0.752 -0.574828,-1.3846718 -1.298828,-1.8886719 -0.12,-0.078 -0.236562,-0.1573281 -0.351562,-0.2363281 V 4.0859375 c -0.003,-0.136 -0.01644,-0.2355625 -0.02344,-0.3515625 -0.11,-0.79 -0.779625,-1.4005938 -1.640625,-1.8085938 C 10.311859,1.4757813 9.0657656,1.21875 7.6972656,1.21875 Z m 3.1250004,1.609375 c 0.68,0.322 1.015218,0.7012969 1.074218,1.0292969 0.01,0.133 0.01358,0.3124844 0.01758,0.5214843 0.012,0.662 0.0045,1.6236958 0,2.0527344 -0.0045,0.4290387 -0.02253,0.5272694 -0.04883,0.6230469 -0.03,0.071 -0.07386,0.14475 -0.130859,0.21875 -0.629,0.691 -1.492875,0.8863281 -2.296875,1.1113281 C 8.3303747,8.6032473 7.19111,8.6085786 6.1679688,8.4394526 5.1448273,8.2703271 4.5489686,7.9331557 4.160776,7.676874 3.7725834,7.4205922 3.652192,7.2793064 3.5625,7.1191406 3.4875,7.0191406 3.488469,6.8950625 3.480469,6.7890625 v -2.640625 c 0.002,-0.177 0.00377,-0.12625 0.00977,-0.28125 0.057,-0.326 0.3939844,-0.7110625 1.0839844,-1.0390625 0.766,-0.364 1.8835468,-0.609875 3.1230445,-0.609375 1.2394977,5e-4 2.3599981,0.243375 3.1249981,0.609375 z"
     style="line-height:normal;font-variant-ligatures:normal;font-variant-position:normal;font-variant-caps:normal;font-variant-numeric:normal;font-variant-alternates:normal;font-feature-settings:normal;text-indent:0;text-align:start;text-decoration:none;text-decoration-line:none;text-decoration-style:solid;text-decoration-color:#000000;text-transform:none;text-orientation:mixed;white-space:normal;shape-padding:0;isolation:auto;mix-blend-mode:normal;solid-color:#000000;solid-opacity:1;fill:#c5c5c5" />
  <path
     style="fill:#c5c5c5;fill-opacity:0.25"
     id="path6"
     d="M 4.574,2.829 C 3.919,3.139 3.59,3.502 3.51,3.816 3.4977738,3.8688487 3.4911006,3.9219009 3.49,3.975 3.4913052,4.9655735 5.3902928,5.7682337 7.732,5.768 9.80766,5.7669185 11.576471,5.1304851 11.912,4.264 11.90925,4.1282441 11.903915,3.9925529 11.896,3.857 11.836,3.529 11.501,3.151 10.822,2.828 10.057,2.463 8.937,2.218 7.6975,2.2185 6.458,2.219 5.34,2.464 4.574,2.829 Z" />
  <path
     id="rect844"
     d="m 10.376641,10.527594 h 4.710426 l -2.356485,4.697084 z"
     style="fill:#3178c6;fill-opacity:1;stroke:none;stroke-width:0.65644938;stroke-linecap:round;stroke-linejoin:round;stroke-miterlimit:4;stroke-dasharray:none;paint-order:stroke fill markers" />
  <path
     style="fill:#c5c5c5;fill-opacity:1;stroke:none;stroke-width:0.65644938;stroke-linecap:round;stroke-linejoin:round;stroke-miterlimit:4;stroke-dasharray:none;paint-order:stroke fill markers"
     d="m 10.376641,10.527594 h 4.710426 l -2.356485,4.697084 z"
     id="path851" />
</svg>

<svg xmlns="http://www.w3.org/2000/svg" width="16" height="16" fill="none">
   <path d="M2.202 6.678c-.388.34-.42.704-.42 1.3.235 1.64 3.04 2.669 5.85 2.679 2.795.01 5.64-.986 5.958-2.582.098-.578-.233-.945-.388-1.277-.3-.2-.527-.24-.718.025 0 1.242-2.145 2.248-4.79 2.249-2.647 0-4.793-1.007-4.794-2.249.001-.056-.102-.201-.2-.282-.158-.09-.386.03-.498.137z" fill="#c5c5c5" fill-opacity=".25" />
   <path d="M7.697 1.219c-1.368 0-2.61.258-3.552.707-.842.4-1.504.99-1.637 1.756-.043.148-.017.268-.03.423v1.5C1.577 6.141.915 6.844.823 7.711c-.027.13-.008.271-.011.414l.003 2.396c.003.038.014.114.026.188.155.972 1 1.746 2.125 2.281 1.246.593 2.902.94 4.732.94 1.108 0 2.139-.142 3.069-.373l-.457-.914c-.79.177-1.671.287-2.612.287-1.703 0-3.236-.334-4.304-.842-.891-.424-1.398-.935-1.541-1.416-.012-.064-.03-.127-.043-.19V8.266c-.016-.3-.018-.553.16-.852.11-.215.282-.413.511-.605-.002.09.019.183.028.27.128.77.791 1.366 1.638 1.769.943.448 2.183.705 3.551.705 1.368 0 2.613-.257 3.557-.705.853-.406 1.522-1.007 1.642-1.787.02-.095.015-.162.022-.252.355.299.575.61.639.978.024.184.019.277.035.49v1.25h1.002V8.082l-.024-.377c-.082-.752-.575-1.385-1.299-1.889-.12-.078-.236-.157-.351-.236V4.086c-.003-.136-.017-.236-.024-.352-.11-.79-.78-1.4-1.64-1.808-.944-.45-2.19-.707-3.559-.707zm3.125 1.61c.68.321 1.015.7 1.074 1.028.01.133.014.313.018.522.012.662.005 1.624 0 2.053-.004.429-.022.527-.049.623-.03.07-.074.144-.13.218-.63.691-1.493.887-2.297 1.112a9.299 9.299 0 01-3.27.054c-1.023-.169-1.619-.506-2.007-.762-.388-.256-.509-.398-.598-.558-.076-.1-.075-.224-.083-.33V4.15c.002-.178.004-.127.01-.282.057-.326.394-.71 1.084-1.039.766-.364 1.884-.61 3.123-.61 1.24.001 2.36.244 3.125.61z" style="line-height:normal;font-variant-ligatures:normal;font-variant-position:normal;font-variant-caps:normal;font-variant-numeric:normal;font-variant-alternates:normal;font-feature-settings:normal;text-indent:0;text-align:start;text-decoration-line:none;text-decoration-style:solid;text-decoration-color:#000;text-transform:none;text-orientation:mixed;white-space:normal;shape-padding:0;isolation:auto;mix-blend-mode:normal;solid-color:#000;solid-opacity:1" fill="#c5c5c5" />
   <path d="M4.574 2.829c-.655.31-.984.673-1.064.987a.775.775 0 00-.02.159c.001.99 1.9 1.793 4.242 1.793 2.076-.001 3.844-.638 4.18-1.504a10.7 10.7 0 00-.016-.407c-.06-.328-.395-.706-1.074-1.029-.765-.365-1.885-.61-3.124-.61-1.24.001-2.358.246-3.124.611z" fill="#c5c5c5" fill-opacity=".25" />
   <path d="M10.377 10.528h4.71l-2.356 4.697z" fill="#3178c6" paint-order="stroke fill markers" />
   <path d="M10.377 10.528h4.71l-2.356 4.697z" fill="#c5c5c5" paint-order="stroke fill markers" />
</svg>
